priv/static/svgs/icons_new/sport-formula1.svg

<svg width="32" height="32" viewBox="0 0 32 32" fill="none" xmlns="http://www.w3.org/2000/svg">
<path d="M6.27523 21.2445C6.12904 22.4309 7.05458 23.4775 8.24995 23.4775C9.24886 23.4775 10.0929 22.7368 10.2227 21.7464L10.4716 19.8475C10.5368 19.3497 10.9611 18.9775 11.4631 18.9775H15.9197C16.8886 18.9775 17.7017 18.2469 17.8049 17.2835C17.925 16.1628 17.0468 15.1855 15.9197 15.1855H12.1699C11.5684 15.1855 11.103 14.6583 11.1776 14.0614L11.2803 13.2399C11.3429 12.7395 11.7683 12.364 12.2726 12.364H16.711C17.6913 12.364 18.5162 11.6299 18.63 10.6562C18.7641 9.50816 17.8669 8.5 16.711 8.5H9.61427C8.60429 8.5 7.7528 9.25301 7.62929 10.2554L6.27523 21.2445Z" stroke="black"/>
<path d="M21.2067 10.2665C21.3252 9.25917 22.1788 8.5 23.193 8.5H23.751C24.9482 8.5 25.8771 9.5446 25.7373 10.7335L24.444 21.7335C24.3255 22.7408 23.4719 23.5 22.4577 23.5H21.8997C20.7025 23.5 19.7736 22.4554 19.9134 21.2665L21.2067 10.2665Z" stroke="black"/>
</svg>

<svg width="32" height="32" viewBox="0 0 32 32" fill="none" xmlns="http://www.w3.org/2000/svg">
  <symbol id="item" viewBox="0 0 32 32" stroke-width="1" fill="none">
    <path d="M6.275 21.244a1.99 1.99 0 0 0 3.948.502l.249-1.898a1 1 0 0 1 .991-.87h4.457a1.896 1.896 0 0 0 0-3.793h-3.75a1 1 0 0 1-.992-1.124l.102-.821a1 1 0 0 1 .993-.876h4.438a1.932 1.932 0 1 0 0-3.864H9.614a2 2 0 0 0-1.985 1.755l-1.354 10.99ZM21.207 10.267A2 2 0 0 1 23.193 8.5h.558a2 2 0 0 1 1.986 2.233l-1.293 11a2 2 0 0 1-1.986 1.767H21.9a2 2 0 0 1-1.987-2.233l1.294-11Z" stroke="currentColor"/>
  </symbol>
</svg>
